svgs/pipepipe.svg

<svg xmlns="http://www.w3.org/2000/svg" width="192" height="192" fill="none"><path stroke="#000" stroke-linecap="round" stroke-linejoin="round" stroke-width="12" d="M51.6 153.1V168m88.8-14.9V168M29.8 153.1h132.4M22 144.3V79.1h14.8V64.3H96m74 80V79.1h-14.8V64.3H96m-8.3-24.7-.1-.1m-2.9-2.9.1.1m9.7 12.7.1.1m2.9-.1-.1.1m6.9-9.9.1-.1m2.9-2.9-.1.1m-30.5-8.8-.1-.1m38.7.1.1-.1M96 64.3v-.9m1.4-13.9v2.8h-2.8v-2.8m2.8 0h-2.8m12.6-12.8v2.8h-2.8m2.8-2.8h-2.8v2.8m11-11.7h2.8V25h-2.8zm-38.8 0V25h-2.8v2.8zm11 11.7h-2.8v-2.8m2.8 2.8v-2.8h-2.8"/></svg>

<svg width="192" height="192" viewBox="0 0 192 192" fill="none" xmlns="http://www.w3.org/2000/svg">
<path d="M51.6 153.1V168M140.4 153.1V168M29.8 153.1H162.2M22 144.3V79.1H36.8V64.3H96M170 144.3V79.1H155.2V64.3H96M87.7 39.6L87.6 39.5M84.7 36.6L84.8 36.7M94.5 49.4L94.6 49.5M97.5 49.4L97.4 49.5M104.3 39.6L104.4 39.5M107.3 36.6L107.2 36.7M76.7 27.9L76.6 27.8M115.3 27.9L115.4 27.8M96 64.3V63.4M97.4 49.5V52.3H94.6L94.6 49.5M97.4 49.5H94.6M107.2 36.7L107.2 39.5H104.4M107.2 36.7H104.4L104.4 39.5M115.4 27.8H118.2L118.2 25H115.4L115.4 27.8ZM76.6 27.8V25H73.8V27.8L76.6 27.8ZM87.6 39.5H84.8V36.7M87.6 39.5L87.6 36.7H84.8" stroke="#000" stroke-width="12" stroke-linecap="round" stroke-linejoin="round"/>
</svg>
